; generated by PrusaSlicer 2.5.2 on 2023-07-07 at 16:57:09 UTC


;
;

;
;
; 

; external perimeters extrusion width = 0.45mm
; perimeters extrusion width = 0.45mm
; infill extrusion width = 0.45mm
; solid infill extrusion width = 0.45mm
; top infill extrusion width = 0.40mm
; first layer extrusion width = 0.42mm

M73 P0 R14
M201 X2500 Y2500 Z400 E5000 ; sets maximum accelerations, mm/sec^2
M203 X180 Y180 Z12 E80 ; sets maximum feedrates, mm / sec
M204 P1250 R1250 T2500 ; sets acceleration (P, T) and retract acceleration (R), mm/sec^2
M205 X8.00 Y8.00 Z2.00 E10.00 ; sets the jerk limits, mm/sec
M205 S0 T0 ; sets the minimum extruding and travel feed rate, mm/sec
M107
;TYPE:Custom
M862.3 P "MINI" ; printer model check
G90 ; use absolute coordinates
M83 ; extruder relative mode
M104 S170 ; set extruder temp for bed leveling
M140 S60 ; set bed temp
M109 R170 ; wait for bed leveling temp
M190 S60 ; wait for bed temp
M204 T1250 ; set travel acceleration
G28 ; home all without mesh bed level
G29 ; mesh bed leveling 
M204 T2500 ; restore travel acceleration
M104 S215 ; set extruder temp
G92 E0
G1 Y-2 X179 F2400
G1 Z3 F720
M109 S215 ; wait for extruder temp

; intro line
M73 P0 R13
G1 X170 F1000
G1 Z0.2 F720
G1 X110 E8 F900
G1 X40 E10 F700
G92 E0

M221 S95 ; set flow
G21 ; set units to millimeters
G90 ; use absolute coordinates
M83 ; use relative distances for extrusion
M900 K0.2 ; Filament gcode LA 1.5
; ; Filament gcode LA 1.0
M107
;LAYER_CHANGE
;Z:0.2
;HEIGHT:0.2
;BEFORE_LAYER_CHANGE
G92 E0.0
;0.2


M73 P1 R13
G1 E-3.2 F4200
G1 Z.2 F720
;AFTER_LAYER_CHANGE
;0.2
G1 Z.4
G1 X47.56 Y76.567 F9000
G1 Z.2 F720
G1 E3.2 F2400
M204 P800
;TYPE:Skirt/Brim
;WIDTH:0.42
G1 F1200
G1 X48.5 Y76.373 E.03008
G1 X131.5 Y76.373 E2.60241
G1 X132.807 Y76.765 E.04278
M73 P2 R13
G1 X133.683 Y77.81 E.04278
G1 X133.877 Y78.75 E.03008
G1 X133.877 Y101.25 E.70547
G1 X133.485 Y102.557 E.04278
G1 X132.44 Y103.433 E.04278
G1 X131.5 Y103.627 E.03008
G1 X48.5 Y103.627 E2.60241
G1 X47.193 Y103.235 E.04278
M73 P3 R13
G1 X46.317 Y102.19 E.04278
G1 X46.123 Y101.25 E.03008
G1 X46.123 Y78.75 E.70547
G1 X46.515 Y77.443 E.04278
G1 X47.514 Y76.605 E.0409
M204 P1000
; printing object Pillbox Lid x2.stl id:0 copy 0
G1 E-2.24 F4200
;WIPE_START
G1 F7200
G1 X48.5 Y76.373 E-.56121
G1 X49.133 Y76.373 E-.35079
;WIPE_END
G1 E-.048 F4200
G1 Z.4 F720
G1 X130.713 Y100.463 F9000
G1 Z.2 F720
G1 E3.2 F2400
M204 P800
;TYPE:Perimeter
;WIDTH:0.419999
G1 F1200
G1 X49.287 Y100.463 E2.55305
G1 X49.287 Y79.537 E.65611
G1 X130.713 Y79.537 E2.55305
G1 X130.713 Y100.403 E.65423
M204 P1000
M73 P4 R13
G1 X131.09 Y100.84 F9000
M204 P800
;TYPE:External perimeter
G1 F1200
G1 X48.91 Y100.84 E2.57669
G1 X48.91 Y79.16 E.67976
M73 P5 R13
G1 X131.09 Y79.16 E2.57669
G1 X131.09 Y100.78 E.67788
M204 P1000
G1 X130.691 Y100.806 F9000
G1 E-3.2 F4200
G1 Z.4 F720
G1 X130.6 Y80.413 F9000
G1 Z.2 F720
G1 E3.2 F2400
M204 P800
;TYPE:Solid infill
;WIDTH:0.420443
G1 F1200
G1 X130.006 Y79.82 E.02635
G1 X129.472 Y79.82 E.01676
G1 X130.43 Y80.778 E.04252
G1 X130.43 Y81.312 E.01676
G1 X128.938 Y79.82 E.06622
G1 X128.405 Y79.82 E.01676
G1 X130.43 Y81.845 E.08992
G1 X130.43 Y82.379 E.01676
G1 X127.871 Y79.82 E.11362
G1 X127.337 Y79.82 E.01676
G1 X130.43 Y82.913 E.13732
G1 X130.43 Y83.447 E.01676
M73 P6 R13
G1 X126.803 Y79.82 E.16103
G1 X126.269 Y79.82 E.01676
G1 X130.43 Y83.981 E.18473
G1 X130.43 Y84.515 E.01676
G1 X125.735 Y79.82 E.20843
G1 X125.201 Y79.82 E.01676
G1 X130.43 Y85.049 E.23213
G1 X130.43 Y85.583 E.01676
G1 X124.667 Y79.82 E.25583
G1 X124.133 Y79.82 E.01676
G1 X130.43 Y86.117 E.27954
G1 X130.43 Y86.65 E.01676
G1 X123.6 Y79.82 E.30324
G1 X123.066 Y79.82 E.01676
G1 X130.43 Y87.184 E.32694
G1 X130.43 Y87.718 E.01676
G1 X122.532 Y79.82 E.35064
G1 X121.998 Y79.82 E.01676
G1 X130.43 Y88.252 E.37434
G1 X130.43 Y88.786 E.01676
G1 X121.464 Y79.82 E.39804
G1 X120.93 Y79.82 E.01676
G1 X130.43 Y89.32 E.42175
G1 X130.43 Y89.854 E.01676
G1 X120.396 Y79.82 E.44545
G1 X119.862 Y79.82 E.01676
G1 X130.43 Y90.388 E.46915
G1 X130.43 Y90.922 E.01676
G1 X119.328 Y79.82 E.49285
G1 X118.794 Y79.82 E.01676
M73 P7 R13
G1 X130.43 Y91.456 E.51655
G1 X130.43 Y91.989 E.01676
G1 X118.261 Y79.82 E.54025
G1 X117.727 Y79.82 E.01676
G1 X130.43 Y92.523 E.56396
G1 X130.43 Y93.057 E.01676
G1 X117.193 Y79.82 E.58766
G1 X116.659 Y79.82 E.01676
G1 X130.43 Y93.591 E.61136
G1 X130.43 Y94.125 E.01676
G1 X116.125 Y79.82 E.63506
G1 X115.591 Y79.82 E.01676
M73 P7 R12
G1 X130.43 Y94.659 E.65876
G1 X130.43 Y95.193 E.01676
G1 X115.057 Y79.82 E.68247
G1 X114.523 Y79.82 E.01676
G1 X130.43 Y95.727 E.70617
G1 X130.43 Y96.261 E.01676
M73 P8 R12
G1 X113.989 Y79.82 E.72987
G1 X113.455 Y79.82 E.01676
G1 X130.43 Y96.795 E.75357
G1 X130.43 Y97.328 E.01676
G1 X112.922 Y79.82 E.77727
G1 X112.388 Y79.82 E.01676
G1 X130.43 Y97.862 E.80097
G1 X130.43 Y98.396 E.01676
G1 X111.854 Y79.82 E.82468
G1 X111.32 Y79.82 E.01676
G1 X130.43 Y98.93 E.84838
G1 X130.43 Y99.464 E.01676
M73 P9 R12
G1 X110.786 Y79.82 E.87208
G1 X110.252 Y79.82 E.01676
G1 X130.43 Y99.998 E.89578
G1 X130.43 Y100.18 E.00572
G1 X130.078 Y100.18 E.01104
G1 X109.718 Y79.82 E.90387
G1 X109.184 Y79.82 E.01676
G1 X129.545 Y100.18 E.90387
G1 X129.011 Y100.18 E.01676
G1 X108.65 Y79.82 E.90387
G1 X108.116 Y79.82 E.01676
G1 X128.477 Y100.18 E.90387
G1 X127.943 Y100.18 E.01676
M73 P10 R12
G1 X107.583 Y79.82 E.90387
G1 X107.049 Y79.82 E.01676
G1 X127.409 Y100.18 E.90387
G1 X126.875 Y100.18 E.01676
G1 X106.515 Y79.82 E.90387
G1 X105.981 Y79.82 E.01676
G1 X126.341 Y100.18 E.90387
G1 X125.807 Y100.18 E.01676
G1 X105.447 Y79.82 E.90387
G1 X104.913 Y79.82 E.01676
G1 X125.273 Y100.18 E.90387
G1 X124.739 Y100.18 E.01676
M73 P11 R12
G1 X104.379 Y79.82 E.90387
G1 X103.845 Y79.82 E.01676
G1 X124.206 Y100.18 E.90387
G1 X123.672 Y100.18 E.01676
G1 X103.311 Y79.82 E.90387
G1 X102.777 Y79.82 E.01676
G1 X123.138 Y100.18 E.90387
G1 X122.604 Y100.18 E.01676
G1 X102.244 Y79.82 E.90387
G1 X101.71 Y79.82 E.01676
G1 X122.07 Y100.18 E.90387
G1 X121.536 Y100.18 E.01676
M73 P12 R12
G1 X101.176 Y79.82 E.90387
G1 X100.642 Y79.82 E.01676
G1 X121.002 Y100.18 E.90387
G1 X120.468 Y100.18 E.01676
G1 X100.108 Y79.82 E.90387
G1 X99.574 Y79.82 E.01676
G1 X119.934 Y100.18 E.90387
G1 X119.4 Y100.18 E.01676
G1 X99.04 Y79.82 E.90387
G1 X98.506 Y79.82 E.01676
M73 P13 R12
G1 X118.867 Y100.18 E.90387
G1 X118.333 Y100.18 E.01676
G1 X97.972 Y79.82 E.90387
G1 X97.438 Y79.82 E.01676
G1 X117.799 Y100.18 E.90387
G1 X117.265 Y100.18 E.01676
G1 X96.905 Y79.82 E.90387
G1 X96.371 Y79.82 E.01676
G1 X116.731 Y100.18 E.90387
G1 X116.197 Y100.18 E.01676
G1 X95.837 Y79.82 E.90387
G1 X95.303 Y79.82 E.01676
M73 P14 R12
G1 X115.663 Y100.18 E.90387
G1 X115.129 Y100.18 E.01676
G1 X94.769 Y79.82 E.90387
G1 X94.235 Y79.82 E.01676
G1 X114.595 Y100.18 E.90387
G1 X114.061 Y100.18 E.01676
G1 X93.701 Y79.82 E.90387
G1 X93.167 Y79.82 E.01676
M73 P14 R11
G1 X113.528 Y100.18 E.90387
G1 X112.994 Y100.18 E.01676
G1 X92.633 Y79.82 E.90387
G1 X92.1 Y79.82 E.01676
M73 P15 R11
G1 X112.46 Y100.18 E.90387
G1 X111.926 Y100.18 E.01676
G1 X91.566 Y79.82 E.90387
G1 X91.032 Y79.82 E.01676
G1 X111.392 Y100.18 E.90387
G1 X110.858 Y100.18 E.01676
G1 X90.498 Y79.82 E.90387
G1 X89.964 Y79.82 E.01676
G1 X110.324 Y100.18 E.90387
G1 X109.79 Y100.18 E.01676
M73 P16 R11
G1 X89.43 Y79.82 E.90387
G1 X88.896 Y79.82 E.01676
G1 X109.256 Y100.18 E.90387
G1 X108.722 Y100.18 E.01676
G1 X88.362 Y79.82 E.90387
G1 X87.828 Y79.82 E.01676
G1 X108.189 Y100.18 E.90387
G1 X107.655 Y100.18 E.01676
G1 X87.294 Y79.82 E.90387
G1 X86.761 Y79.82 E.01676
G1 X107.121 Y100.18 E.90387
G1 X106.587 Y100.18 E.01676
M73 P17 R11
G1 X86.227 Y79.82 E.90387
G1 X85.693 Y79.82 E.01676
G1 X106.053 Y100.18 E.90387
G1 X105.519 Y100.18 E.01676
G1 X85.159 Y79.82 E.90387
G1 X84.625 Y79.82 E.01676
G1 X104.985 Y100.18 E.90387
G1 X104.451 Y100.18 E.01676
G1 X84.091 Y79.82 E.90387
G1 X83.557 Y79.82 E.01676
G1 X103.917 Y100.18 E.90387
G1 X103.383 Y100.18 E.01676
M73 P18 R11
G1 X83.023 Y79.82 E.90387
G1 X82.489 Y79.82 E.01676
G1 X102.85 Y100.18 E.90387
G1 X102.316 Y100.18 E.01676
G1 X81.955 Y79.82 E.90387
G1 X81.422 Y79.82 E.01676
G1 X101.782 Y100.18 E.90387
G1 X101.248 Y100.18 E.01676
G1 X80.888 Y79.82 E.90387
G1 X80.354 Y79.82 E.01676
M73 P19 R11
G1 X100.714 Y100.18 E.90387
G1 X100.18 Y100.18 E.01676
G1 X79.82 Y79.82 E.90387
G1 X79.286 Y79.82 E.01676
G1 X99.646 Y100.18 E.90387
G1 X99.112 Y100.18 E.01676
G1 X78.752 Y79.82 E.90387
G1 X78.218 Y79.82 E.01676
G1 X98.578 Y100.18 E.90387
G1 X98.045 Y100.18 E.01676
G1 X77.684 Y79.82 E.90387
G1 X77.15 Y79.82 E.01676
M73 P20 R11
G1 X97.511 Y100.18 E.90387
G1 X96.977 Y100.18 E.01676
G1 X76.616 Y79.82 E.90387
G1 X76.083 Y79.82 E.01676
G1 X96.443 Y100.18 E.90387
G1 X95.909 Y100.18 E.01676
G1 X75.549 Y79.82 E.90387
G1 X75.015 Y79.82 E.01676
G1 X95.375 Y100.18 E.90387
G1 X94.841 Y100.18 E.01676
G1 X74.481 Y79.82 E.90387
G1 X73.947 Y79.82 E.01676
M73 P21 R11
G1 X94.307 Y100.18 E.90387
G1 X93.773 Y100.18 E.01676
G1 X73.413 Y79.82 E.90387
G1 X72.879 Y79.82 E.01676
G1 X93.239 Y100.18 E.90387
G1 X92.706 Y100.18 E.01676
G1 X72.345 Y79.82 E.90387
G1 X71.811 Y79.82 E.01676
G1 X92.172 Y100.18 E.90387
G1 X91.638 Y100.18 E.01676
M73 P21 R10
G1 X71.277 Y79.82 E.90387
G1 X70.744 Y79.82 E.01676
M73 P22 R10
G1 X91.104 Y100.18 E.90387
G1 X90.57 Y100.18 E.01676
G1 X70.21 Y79.82 E.90387
G1 X69.676 Y79.82 E.01676
G1 X90.036 Y100.18 E.90387
G1 X89.502 Y100.18 E.01676
G1 X69.142 Y79.82 E.90387
G1 X68.608 Y79.82 E.01676
G1 X88.968 Y100.18 E.90387
G1 X88.434 Y100.18 E.01676
M73 P23 R10
G1 X68.074 Y79.82 E.90387
G1 X67.54 Y79.82 E.01676
G1 X87.9 Y100.18 E.90387
G1 X87.367 Y100.18 E.01676
G1 X67.006 Y79.82 E.90387
G1 X66.472 Y79.82 E.01676
G1 X86.833 Y100.18 E.90387
G1 X86.299 Y100.18 E.01676
G1 X65.939 Y79.82 E.90387
G1 X65.405 Y79.82 E.01676
G1 X85.765 Y100.18 E.90387
G1 X85.231 Y100.18 E.01676
M73 P24 R10
G1 X64.871 Y79.82 E.90387
G1 X64.337 Y79.82 E.01676
G1 X84.697 Y100.18 E.90387
G1 X84.163 Y100.18 E.01676
G1 X63.803 Y79.82 E.90387
G1 X63.269 Y79.82 E.01676
G1 X83.629 Y100.18 E.90387
G1 X83.095 Y100.18 E.01676
G1 X62.735 Y79.82 E.90387
G1 X62.201 Y79.82 E.01676
G1 X82.561 Y100.18 E.90387
G1 X82.028 Y100.18 E.01676
M73 P25 R10
G1 X61.667 Y79.82 E.90387
G1 X61.133 Y79.82 E.01676
G1 X81.494 Y100.18 E.90387
G1 X80.96 Y100.18 E.01676
G1 X60.6 Y79.82 E.90387
G1 X60.066 Y79.82 E.01676
G1 X80.426 Y100.18 E.90387
G1 X79.892 Y100.18 E.01676
G1 X59.532 Y79.82 E.90387
G1 X58.998 Y79.82 E.01676
M73 P26 R10
G1 X79.358 Y100.18 E.90387
G1 X78.824 Y100.18 E.01676
G1 X58.464 Y79.82 E.90387
G1 X57.93 Y79.82 E.01676
G1 X78.29 Y100.18 E.90387
G1 X77.756 Y100.18 E.01676
G1 X57.396 Y79.82 E.90387
G1 X56.862 Y79.82 E.01676
G1 X77.222 Y100.18 E.90387
G1 X76.689 Y100.18 E.01676
G1 X56.328 Y79.82 E.90387
G1 X55.794 Y79.82 E.01676
M73 P27 R10
G1 X76.155 Y100.18 E.90387
G1 X75.621 Y100.18 E.01676
G1 X55.261 Y79.82 E.90387
G1 X54.727 Y79.82 E.01676
G1 X75.087 Y100.18 E.90387
G1 X74.553 Y100.18 E.01676
G1 X54.193 Y79.82 E.90387
G1 X53.659 Y79.82 E.01676
G1 X74.019 Y100.18 E.90387
G1 X73.485 Y100.18 E.01676
G1 X53.125 Y79.82 E.90387
G1 X52.591 Y79.82 E.01676
M73 P28 R10
G1 X72.951 Y100.18 E.90387
G1 X72.417 Y100.18 E.01676
G1 X52.057 Y79.82 E.90387
G1 X51.523 Y79.82 E.01676
G1 X71.884 Y100.18 E.90387
G1 X71.35 Y100.18 E.01676
G1 X50.989 Y79.82 E.90387
G1 X50.455 Y79.82 E.01676
G1 X70.816 Y100.18 E.90387
G1 X70.282 Y100.18 E.01676
M73 P29 R9
G1 X49.922 Y79.82 E.90387
G1 X49.57 Y79.82 E.01104
G1 X49.57 Y80.002 E.00572
G1 X69.748 Y100.18 E.89578
G1 X69.214 Y100.18 E.01676
G1 X49.57 Y80.536 E.87208
G1 X49.57 Y81.07 E.01676
G1 X68.68 Y100.18 E.84838
G1 X68.146 Y100.18 E.01676
G1 X49.57 Y81.604 E.82467
G1 X49.57 Y82.138 E.01676
G1 X67.612 Y100.18 E.80097
G1 X67.078 Y100.18 E.01676
M73 P30 R9
G1 X49.57 Y82.672 E.77727
G1 X49.57 Y83.205 E.01676
G1 X66.545 Y100.18 E.75357
G1 X66.011 Y100.18 E.01676
G1 X49.57 Y83.739 E.72987
G1 X49.57 Y84.273 E.01676
G1 X65.477 Y100.18 E.70617
G1 X64.943 Y100.18 E.01676
G1 X49.57 Y84.807 E.68246
G1 X49.57 Y85.341 E.01676
G1 X64.409 Y100.18 E.65876
G1 X63.875 Y100.18 E.01676
G1 X49.57 Y85.875 E.63506
G1 X49.57 Y86.409 E.01676
G1 X63.341 Y100.18 E.61136
G1 X62.807 Y100.18 E.01676
M73 P31 R9
G1 X49.57 Y86.943 E.58766
G1 X49.57 Y87.477 E.01676
G1 X62.273 Y100.18 E.56396
G1 X61.739 Y100.18 E.01676
G1 X49.57 Y88.011 E.54025
G1 X49.57 Y88.544 E.01676
G1 X61.206 Y100.18 E.51655
G1 X60.672 Y100.18 E.01676
G1 X49.57 Y89.078 E.49285
G1 X49.57 Y89.612 E.01676
G1 X60.138 Y100.18 E.46915
G1 X59.604 Y100.18 E.01676
G1 X49.57 Y90.146 E.44545
G1 X49.57 Y90.68 E.01676
G1 X59.07 Y100.18 E.42174
G1 X58.536 Y100.18 E.01676
G1 X49.57 Y91.214 E.39804
G1 X49.57 Y91.748 E.01676
G1 X58.002 Y100.18 E.37434
G1 X57.468 Y100.18 E.01676
M73 P32 R9
G1 X49.57 Y92.282 E.35064
G1 X49.57 Y92.816 E.01676
G1 X56.934 Y100.18 E.32694
G1 X56.4 Y100.18 E.01676
G1 X49.57 Y93.35 E.30324
G1 X49.57 Y93.883 E.01676
G1 X55.867 Y100.18 E.27953
G1 X55.333 Y100.18 E.01676
G1 X49.57 Y94.417 E.25583
G1 X49.57 Y94.951 E.01676
G1 X54.799 Y100.18 E.23213
G1 X54.265 Y100.18 E.01676
G1 X49.57 Y95.485 E.20843
G1 X49.57 Y96.019 E.01676
G1 X53.731 Y100.18 E.18473
G1 X53.197 Y100.18 E.01676
G1 X49.57 Y96.553 E.16102
G1 X49.57 Y97.087 E.01676
G1 X52.663 Y100.18 E.13732
G1 X52.129 Y100.18 E.01676
G1 X49.57 Y97.621 E.11362
G1 X49.57 Y98.155 E.01676
G1 X51.595 Y100.18 E.08992
G1 X51.061 Y100.18 E.01676
G1 X49.57 Y98.689 E.06622
G1 X49.57 Y99.222 E.01676
G1 X50.528 Y100.18 E.04252
G1 X49.994 Y100.18 E.01676
G1 X49.4 Y99.587 E.02635
M204 P1000
; stop printing object Pillbox Lid x2.stl id:0 copy 0
M106 S84.15
;LAYER_CHANGE
;Z:0.35
;HEIGHT:0.15
;BEFORE_LAYER_CHANGE
G92 E0.0
;0.35


G1 E-2.24 F4200
;WIPE_START
G1 F7200
G1 X49.994 Y100.18 E-.46513
G1 X50.528 Y100.18 E-.29587
G1 X50.335 Y99.987 E-.15101
;WIPE_END
G1 E-.048 F4200
G1 Z.4 F720
;AFTER_LAYER_CHANGE
;0.35
G1 X50.335 Y103.627 F9000
G1 Z.35 F720
G1 E3.2 F2400
;TYPE:Skirt/Brim
;WIDTH:0.42
G1 X48.5 Y103.627 E.04438
G1 X47.193 Y103.235 E.033
G1 X46.317 Y102.19 E.033
G1 X46.123 Y101.25 E.02321
G1 X46.123 Y78.75 E.54416
G1 X46.515 Y77.443 E.033
G1 X47.56 Y76.567 E.033
G1 X48.5 Y76.373 E.02321
G1 X131.5 Y76.373 E2.00735
G1 X132.807 Y76.765 E.033
M73 P33 R9
G1 X133.683 Y77.81 E.033
G1 X133.877 Y78.75 E.02321
G1 X133.877 Y101.25 E.54416
G1 X133.485 Y102.557 E.033
G1 X132.44 Y103.433 E.033
G1 X131.5 Y103.627 E.02321
G1 X50.395 Y103.627 E1.96152
; printing object Pillbox Lid x2.stl id:0 copy 0
G1 E-2.24 F4200
;WIPE_START
G1 F7200
G1 X48.749 Y103.627 E-.912
;WIPE_END
G1 E-.048 F4200
G1 Z.55 F720
G1 X58.926 Y100.623 F9000
G1 X130.873 Y100.623
G1 X130.873 Y79.377
G1 X130.857 Y79.377
G1 X130.857 Y79.393
G1 Z.35 F720
G1 E3.2 F2400
M204 P800
;TYPE:Perimeter
;WIDTH:0.449999
G1 X130.857 Y100.607 E.55276
G1 X49.143 Y100.607 E2.12913
G1 X49.143 Y79.393 E.55276
G1 X130.797 Y79.393 E2.12756
M204 P1000
G1 X131.275 Y78.975 F9000
M204 P800
;TYPE:External perimeter
M73 P34 R9
G1 F1800
G1 X131.275 Y101.025 E.57453
G1 X48.725 Y101.025 E2.1509
G1 X48.725 Y78.975 E.57453
G1 X131.215 Y78.975 E2.14934
M204 P1000
G1 X131.106 Y79.337 F9000
G1 E-3.2 F4200
G1 Z.55 F720
G1 X107.934 Y79.903 F9000
G1 Z.35 F720
M73 P35 R9
G1 E3.2 F2400
;TYPE:Solid infill
;WIDTH:0.533561
G1 F4800
G1 X108.319 Y79.518 E.01703
G1 E-3.2 F4200
G1 Z.55 F720
G1 X105.222 Y79.518 F9000
G1 Z.35 F720
G1 E3.2 F2400
;WIDTH:0.451185
G1 F4800
G1 X104.423 Y80.318 E.02954
G1 E-3.2 F4200
G1 Z.55 F720
G1 X103.357 Y84.347 F9000
G1 Z.35 F720
G1 E3.2 F2400
G1 F4800
G1 X100.864 Y86.839 E.09211
G1 E-3.2 F4200
G1 Z.55 F720
G1 X129.885 Y100.482 F9000
G1 Z.35 F720
G1 E3.2 F2400
G1 F4800
G1 X130.544 Y99.823 E.02436
G1 X130.544 Y99.23 E.01548
G1 X129.48 Y100.294 E.0393
G1 X128.888 Y100.294 E.01548
G1 X130.544 Y98.638 E.0612
G1 X130.544 Y98.045 E.01548
G1 X128.295 Y100.294 E.0831
G1 X127.703 Y100.294 E.01548
G1 X130.544 Y97.453 E.10499
G1 X130.544 Y96.86 E.01548
G1 X127.11 Y100.294 E.12689
G1 X126.517 Y100.294 E.01548
G1 X130.544 Y96.267 E.14879
G1 X130.544 Y95.675 E.01548
G1 X125.925 Y100.294 E.17068
G1 X125.332 Y100.294 E.01548
G1 X130.544 Y95.082 E.19258
G1 X130.544 Y94.49 E.01548
G1 X124.74 Y100.294 E.21448
