; generated by PrusaSlicer 2.5.2 on 2023-07-07 at 16:45:34 UTC


;
;

;
;
; 

; external perimeters extrusion width = 0.45mm
; perimeters extrusion width = 0.45mm
; infill extrusion width = 0.45mm
; solid infill extrusion width = 0.45mm
; top infill extrusion width = 0.40mm
; first layer extrusion width = 0.42mm

M73 P0 R21
M201 X2500 Y2500 Z400 E5000 ; sets maximum accelerations, mm/sec^2
M203 X180 Y180 Z12 E80 ; sets maximum feedrates, mm / sec
M204 P1250 R1250 T2500 ; sets acceleration (P, T) and retract acceleration (R), mm/sec^2
M205 X8.00 Y8.00 Z2.00 E10.00 ; sets the jerk limits, mm/sec
M205 S0 T0 ; sets the minimum extruding and travel feed rate, mm/sec
M107
;TYPE:Custom
M862.3 P "MINI" ; printer model check
G90 ; use absolute coordinates
M83 ; extruder relative mode
M104 S170 ; set extruder temp for bed leveling
M140 S60 ; set bed temp
M109 R170 ; wait for bed leveling temp
M190 S60 ; wait for bed temp
M204 T1250 ; set travel acceleration
G28 ; home all without mesh bed level
G29 ; mesh bed leveling 
M204 T2500 ; restore travel acceleration
M104 S215 ; set extruder temp
G92 E0
G1 Y-2 X179 F2400
G1 Z3 F720
M109 S215 ; wait for extruder temp

; intro line
G1 X170 F1000
G1 Z0.2 F720
G1 X110 E8 F900
G1 X40 E10 F700
G92 E0

M221 S95 ; set flow
G21 ; set units to millimeters
G90 ; use absolute coordinates
M83 ; use relative distances for extrusion
M900 K0.2 ; Filament gcode LA 1.5
; ; Filament gcode LA 1.0
M107
;LAYER_CHANGE
;Z:0.2
;HEIGHT:0.2
;BEFORE_LAYER_CHANGE
G92 E0.0
;0.2


G1 E-3.2 F4200
M73 P1 R21
G1 Z.2 F720
;AFTER_LAYER_CHANGE
;0.2
G1 Z.4
G1 X26.06 Y76.567 F9000
G1 Z.2 F720
G1 E3.2 F2400
M204 P800
;TYPE:Skirt/Brim
;WIDTH:0.42
G1 F1200
G1 X27 Y76.373 E.03008
G1 X153 Y76.373 E3.95064
G1 X154.307 Y76.765 E.04278
G1 X155.183 Y77.81 E.04278
G1 X155.377 Y78.75 E.03008
G1 X155.377 Y101.25 E.70547
G1 X154.985 Y102.557 E.04278
G1 X153.94 Y103.433 E.04278
G1 X153 Y103.627 E.03008
G1 X27 Y103.627 E3.95064
G1 X25.693 Y103.235 E.04278
M73 P2 R20
G1 X24.817 Y102.19 E.04278
G1 X24.623 Y101.25 E.03008
G1 X24.623 Y78.75 E.70547
G1 X25.015 Y77.443 E.04278
G1 X26.014 Y76.605 E.0409
M204 P1000
; printing object Pillbox Lid.stl id:0 copy 0
G1 E-2.24 F4200
;WIPE_START
G1 F7200
G1 X27 Y76.373 E-.56121
G1 X27.633 Y76.373 E-.35079
;WIPE_END
G1 E-.048 F4200
G1 Z.4 F720
G1 X152.213 Y100.463 F9000
G1 Z.2 F720
G1 E3.2 F2400
M204 P800
;TYPE:Perimeter
;WIDTH:0.419999
G1 F1200
G1 X27.787 Y100.463 E3.90128
G1 X27.787 Y79.537 E.65611
M73 P3 R20
G1 X152.213 Y79.537 E3.90128
G1 X152.213 Y100.403 E.65423
M204 P1000
G1 X152.59 Y100.84 F9000
M204 P800
;TYPE:External perimeter
G1 F1200
G1 X27.41 Y100.84 E3.92492
G1 X27.41 Y79.16 E.67976
M73 P4 R20
G1 X152.59 Y79.16 E3.92492
G1 X152.59 Y100.78 E.67788
M204 P1000
G1 X152.191 Y100.817 F9000
G1 E-3.2 F4200
G1 Z.4 F720
G1 X152.1 Y80.415 F9000
G1 Z.2 F720
G1 E3.2 F2400
M204 P800
;TYPE:Solid infill
;WIDTH:0.421195
G1 F1200
G1 X151.505 Y79.82 E.02647
G1 X150.97 Y79.82 E.01683
G1 X151.93 Y80.78 E.04272
G1 X151.93 Y81.315 E.01683
G1 X150.435 Y79.82 E.06652
G1 X149.9 Y79.82 E.01683
G1 X151.93 Y81.85 E.09031
G1 X151.93 Y82.385 E.01683
G1 X149.365 Y79.82 E.11411
G1 X148.83 Y79.82 E.01683
G1 X151.93 Y82.92 E.13791
G1 X151.93 Y83.455 E.01683
G1 X148.295 Y79.82 E.1617
G1 X147.76 Y79.82 E.01683
G1 X151.93 Y83.99 E.1855
G1 X151.93 Y84.525 E.01683
M73 P5 R20
G1 X147.225 Y79.82 E.20929
G1 X146.69 Y79.82 E.01683
G1 X151.93 Y85.06 E.23309
G1 X151.93 Y85.595 E.01683
G1 X146.155 Y79.82 E.25689
G1 X145.62 Y79.82 E.01683
G1 X151.93 Y86.13 E.28068
G1 X151.93 Y86.665 E.01683
G1 X145.085 Y79.82 E.30448
G1 X144.55 Y79.82 E.01683
G1 X151.93 Y87.2 E.32828
G1 X151.93 Y87.735 E.01683
G1 X144.015 Y79.82 E.35207
G1 X143.48 Y79.82 E.01683
G1 X151.93 Y88.27 E.37587
G1 X151.93 Y88.805 E.01683
G1 X142.945 Y79.82 E.39967
G1 X142.41 Y79.82 E.01683
G1 X151.93 Y89.34 E.42346
G1 X151.93 Y89.875 E.01683
G1 X141.875 Y79.82 E.44726
G1 X141.34 Y79.82 E.01683
G1 X151.93 Y90.41 E.47105
G1 X151.93 Y90.945 E.01683
G1 X140.805 Y79.82 E.49485
G1 X140.27 Y79.82 E.01683
G1 X151.93 Y91.48 E.51865
G1 X151.93 Y92.014 E.01683
G1 X139.736 Y79.82 E.54244
G1 X139.201 Y79.82 E.01683
G1 X151.93 Y92.549 E.56624
G1 X151.93 Y93.084 E.01683
G1 X138.666 Y79.82 E.59004
G1 X138.131 Y79.82 E.01683
G1 X151.93 Y93.619 E.61383
G1 X151.93 Y94.154 E.01683
G1 X137.596 Y79.82 E.63763
G1 X137.061 Y79.82 E.01683
M73 P6 R20
G1 X151.93 Y94.689 E.66142
G1 X151.93 Y95.224 E.01683
G1 X136.526 Y79.82 E.68522
G1 X135.991 Y79.82 E.01683
G1 X151.93 Y95.759 E.70902
G1 X151.93 Y96.294 E.01683
G1 X135.456 Y79.82 E.73281
G1 X134.921 Y79.82 E.01683
G1 X151.93 Y96.829 E.75661
G1 X151.93 Y97.364 E.01683
G1 X134.386 Y79.82 E.78041
G1 X133.851 Y79.82 E.01683
G1 X151.93 Y97.899 E.8042
G1 X151.93 Y98.434 E.01683
G1 X133.316 Y79.82 E.828
G1 X132.781 Y79.82 E.01683
G1 X151.93 Y98.969 E.85179
G1 X151.93 Y99.504 E.01683
M73 P6 R19
G1 X132.246 Y79.82 E.87559
G1 X131.711 Y79.82 E.01683
M73 P7 R19
G1 X151.93 Y100.039 E.89939
G1 X151.93 Y100.18 E.00444
G1 X151.536 Y100.18 E.01238
G1 X131.176 Y79.82 E.90567
G1 X130.641 Y79.82 E.01683
G1 X151.001 Y100.18 E.90567
G1 X150.466 Y100.18 E.01683
G1 X130.106 Y79.82 E.90567
G1 X129.571 Y79.82 E.01683
G1 X149.932 Y100.18 E.90567
G1 X149.397 Y100.18 E.01683
G1 X129.036 Y79.82 E.90567
G1 X128.501 Y79.82 E.01683
G1 X148.862 Y100.18 E.90567
G1 X148.327 Y100.18 E.01683
G1 X127.966 Y79.82 E.90567
G1 X127.431 Y79.82 E.01683
G1 X147.792 Y100.18 E.90567
G1 X147.257 Y100.18 E.01683
M73 P8 R19
G1 X126.896 Y79.82 E.90567
G1 X126.361 Y79.82 E.01683
G1 X146.722 Y100.18 E.90567
G1 X146.187 Y100.18 E.01683
G1 X125.827 Y79.82 E.90567
G1 X125.292 Y79.82 E.01683
G1 X145.652 Y100.18 E.90567
G1 X145.117 Y100.18 E.01683
G1 X124.757 Y79.82 E.90567
G1 X124.222 Y79.82 E.01683
G1 X144.582 Y100.18 E.90567
G1 X144.047 Y100.18 E.01683
G1 X123.687 Y79.82 E.90567
G1 X123.152 Y79.82 E.01683
G1 X143.512 Y100.18 E.90567
G1 X142.977 Y100.18 E.01683
G1 X122.617 Y79.82 E.90567
G1 X122.082 Y79.82 E.01683
M73 P9 R19
G1 X142.442 Y100.18 E.90567
G1 X141.907 Y100.18 E.01683
G1 X121.547 Y79.82 E.90567
G1 X121.012 Y79.82 E.01683
G1 X141.372 Y100.18 E.90567
G1 X140.837 Y100.18 E.01683
G1 X120.477 Y79.82 E.90567
G1 X119.942 Y79.82 E.01683
G1 X140.302 Y100.18 E.90567
G1 X139.767 Y100.18 E.01683
G1 X119.407 Y79.82 E.90567
G1 X118.872 Y79.82 E.01683
G1 X139.232 Y100.18 E.90567
G1 X138.697 Y100.18 E.01683
G1 X118.337 Y79.82 E.90567
G1 X117.802 Y79.82 E.01683
M73 P10 R19
G1 X138.162 Y100.18 E.90567
G1 X137.627 Y100.18 E.01683
G1 X117.267 Y79.82 E.90567
G1 X116.732 Y79.82 E.01683
G1 X137.092 Y100.18 E.90567
G1 X136.557 Y100.18 E.01683
G1 X116.197 Y79.82 E.90567
G1 X115.662 Y79.82 E.01683
G1 X136.023 Y100.18 E.90567
G1 X135.488 Y100.18 E.01683
G1 X115.127 Y79.82 E.90567
G1 X114.592 Y79.82 E.01683
G1 X134.953 Y100.18 E.90567
G1 X134.418 Y100.18 E.01683
G1 X114.057 Y79.82 E.90567
G1 X113.522 Y79.82 E.01683
G1 X133.883 Y100.18 E.90567
G1 X133.348 Y100.18 E.01683
M73 P11 R19
G1 X112.987 Y79.82 E.90567
G1 X112.452 Y79.82 E.01683
G1 X132.813 Y100.18 E.90567
G1 X132.278 Y100.18 E.01683
G1 X111.918 Y79.82 E.90567
G1 X111.383 Y79.82 E.01683
G1 X131.743 Y100.18 E.90567
G1 X131.208 Y100.18 E.01683
G1 X110.848 Y79.82 E.90567
G1 X110.313 Y79.82 E.01683
M73 P11 R18
G1 X130.673 Y100.18 E.90567
G1 X130.138 Y100.18 E.01683
G1 X109.778 Y79.82 E.90567
G1 X109.243 Y79.82 E.01683
G1 X129.603 Y100.18 E.90567
G1 X129.068 Y100.18 E.01683
G1 X108.708 Y79.82 E.90567
G1 X108.173 Y79.82 E.01683
M73 P12 R18
G1 X128.533 Y100.18 E.90567
G1 X127.998 Y100.18 E.01683
G1 X107.638 Y79.82 E.90567
G1 X107.103 Y79.82 E.01683
G1 X127.463 Y100.18 E.90567
G1 X126.928 Y100.18 E.01683
G1 X106.568 Y79.82 E.90567
G1 X106.033 Y79.82 E.01683
G1 X126.393 Y100.18 E.90567
G1 X125.858 Y100.18 E.01683
G1 X105.498 Y79.82 E.90567
G1 X104.963 Y79.82 E.01683
G1 X125.323 Y100.18 E.90567
G1 X124.788 Y100.18 E.01683
G1 X104.428 Y79.82 E.90567
G1 X103.893 Y79.82 E.01683
M73 P13 R18
G1 X124.253 Y100.18 E.90567
G1 X123.718 Y100.18 E.01683
G1 X103.358 Y79.82 E.90567
G1 X102.823 Y79.82 E.01683
G1 X123.183 Y100.18 E.90567
G1 X122.648 Y100.18 E.01683
G1 X102.288 Y79.82 E.90567
G1 X101.753 Y79.82 E.01683
G1 X122.114 Y100.18 E.90567
G1 X121.579 Y100.18 E.01683
G1 X101.218 Y79.82 E.90567
G1 X100.683 Y79.82 E.01683
G1 X121.044 Y100.18 E.90567
G1 X120.509 Y100.18 E.01683
G1 X100.148 Y79.82 E.90567
G1 X99.613 Y79.82 E.01683
G1 X119.974 Y100.18 E.90567
G1 X119.439 Y100.18 E.01683
M73 P14 R18
G1 X99.078 Y79.82 E.90567
G1 X98.543 Y79.82 E.01683
G1 X118.904 Y100.18 E.90567
G1 X118.369 Y100.18 E.01683
G1 X98.009 Y79.82 E.90567
G1 X97.474 Y79.82 E.01683
G1 X117.834 Y100.18 E.90567
G1 X117.299 Y100.18 E.01683
G1 X96.939 Y79.82 E.90567
G1 X96.404 Y79.82 E.01683
G1 X116.764 Y100.18 E.90567
G1 X116.229 Y100.18 E.01683
G1 X95.869 Y79.82 E.90567
G1 X95.334 Y79.82 E.01683
G1 X115.694 Y100.18 E.90567
G1 X115.159 Y100.18 E.01683
G1 X94.799 Y79.82 E.90567
G1 X94.264 Y79.82 E.01683
M73 P15 R18
G1 X114.624 Y100.18 E.90567
G1 X114.089 Y100.18 E.01683
G1 X93.729 Y79.82 E.90567
G1 X93.194 Y79.82 E.01683
G1 X113.554 Y100.18 E.90567
G1 X113.019 Y100.18 E.01683
G1 X92.659 Y79.82 E.90567
G1 X92.124 Y79.82 E.01683
G1 X112.484 Y100.18 E.90567
G1 X111.949 Y100.18 E.01683
G1 X91.589 Y79.82 E.90567
G1 X91.054 Y79.82 E.01683
G1 X111.414 Y100.18 E.90567
G1 X110.879 Y100.18 E.01683
G1 X90.519 Y79.82 E.90567
G1 X89.984 Y79.82 E.01683
M73 P16 R18
G1 X110.344 Y100.18 E.90567
G1 X109.809 Y100.18 E.01683
G1 X89.449 Y79.82 E.90567
G1 X88.914 Y79.82 E.01683
M73 P16 R17
G1 X109.274 Y100.18 E.90567
G1 X108.739 Y100.18 E.01683
G1 X88.379 Y79.82 E.90567
G1 X87.844 Y79.82 E.01683
G1 X108.205 Y100.18 E.90567
G1 X107.67 Y100.18 E.01683
G1 X87.309 Y79.82 E.90567
G1 X86.774 Y79.82 E.01683
G1 X107.135 Y100.18 E.90567
G1 X106.6 Y100.18 E.01683
G1 X86.239 Y79.82 E.90567
G1 X85.704 Y79.82 E.01683
G1 X106.065 Y100.18 E.90567
G1 X105.53 Y100.18 E.01683
M73 P17 R17
G1 X85.169 Y79.82 E.90567
G1 X84.634 Y79.82 E.01683
G1 X104.995 Y100.18 E.90567
G1 X104.46 Y100.18 E.01683
G1 X84.1 Y79.82 E.90567
G1 X83.565 Y79.82 E.01683
G1 X103.925 Y100.18 E.90567
G1 X103.39 Y100.18 E.01683
G1 X83.03 Y79.82 E.90567
G1 X82.495 Y79.82 E.01683
G1 X102.855 Y100.18 E.90567
G1 X102.32 Y100.18 E.01683
G1 X81.96 Y79.82 E.90567
G1 X81.425 Y79.82 E.01683
G1 X101.785 Y100.18 E.90567
G1 X101.25 Y100.18 E.01683
G1 X80.89 Y79.82 E.90567
G1 X80.355 Y79.82 E.01683
M73 P18 R17
G1 X100.715 Y100.18 E.90567
G1 X100.18 Y100.18 E.01683
G1 X79.82 Y79.82 E.90567
G1 X79.285 Y79.82 E.01683
G1 X99.645 Y100.18 E.90567
G1 X99.11 Y100.18 E.01683
G1 X78.75 Y79.82 E.90567
G1 X78.215 Y79.82 E.01683
G1 X98.575 Y100.18 E.90567
G1 X98.04 Y100.18 E.01683
G1 X77.68 Y79.82 E.90567
G1 X77.145 Y79.82 E.01683
G1 X97.505 Y100.18 E.90567
G1 X96.97 Y100.18 E.01683
G1 X76.61 Y79.82 E.90567
G1 X76.075 Y79.82 E.01683
G1 X96.435 Y100.18 E.90567
G1 X95.9 Y100.18 E.01683
M73 P19 R17
G1 X75.54 Y79.82 E.90567
G1 X75.005 Y79.82 E.01683
G1 X95.365 Y100.18 E.90567
G1 X94.83 Y100.18 E.01683
G1 X74.47 Y79.82 E.90567
G1 X73.935 Y79.82 E.01683
G1 X94.296 Y100.18 E.90567
G1 X93.761 Y100.18 E.01683
G1 X73.4 Y79.82 E.90567
G1 X72.865 Y79.82 E.01683
G1 X93.226 Y100.18 E.90567
G1 X92.691 Y100.18 E.01683
G1 X72.33 Y79.82 E.90567
G1 X71.795 Y79.82 E.01683
G1 X92.156 Y100.18 E.90567
G1 X91.621 Y100.18 E.01683
M73 P20 R17
G1 X71.26 Y79.82 E.90567
G1 X70.725 Y79.82 E.01683
G1 X91.086 Y100.18 E.90567
G1 X90.551 Y100.18 E.01683
G1 X70.191 Y79.82 E.90567
G1 X69.656 Y79.82 E.01683
G1 X90.016 Y100.18 E.90567
G1 X89.481 Y100.18 E.01683
G1 X69.121 Y79.82 E.90567
G1 X68.586 Y79.82 E.01683
G1 X88.946 Y100.18 E.90567
G1 X88.411 Y100.18 E.01683
G1 X68.051 Y79.82 E.90567
G1 X67.516 Y79.82 E.01683
G1 X87.876 Y100.18 E.90567
G1 X87.341 Y100.18 E.01683
M73 P20 R16
G1 X66.981 Y79.82 E.90567
G1 X66.446 Y79.82 E.01683
M73 P21 R16
G1 X86.806 Y100.18 E.90567
G1 X86.271 Y100.18 E.01683
G1 X65.911 Y79.82 E.90567
G1 X65.376 Y79.82 E.01683
G1 X85.736 Y100.18 E.90567
G1 X85.201 Y100.18 E.01683
G1 X64.841 Y79.82 E.90567
G1 X64.306 Y79.82 E.01683
G1 X84.666 Y100.18 E.90567
G1 X84.131 Y100.18 E.01683
G1 X63.771 Y79.82 E.90567
G1 X63.236 Y79.82 E.01683
G1 X83.596 Y100.18 E.90567
G1 X83.061 Y100.18 E.01683
G1 X62.701 Y79.82 E.90567
G1 X62.166 Y79.82 E.01683
G1 X82.526 Y100.18 E.90567
G1 X81.991 Y100.18 E.01683
M73 P22 R16
G1 X61.631 Y79.82 E.90567
G1 X61.096 Y79.82 E.01683
G1 X81.456 Y100.18 E.90567
G1 X80.921 Y100.18 E.01683
G1 X60.561 Y79.82 E.90567
G1 X60.026 Y79.82 E.01683
G1 X80.386 Y100.18 E.90567
G1 X79.852 Y100.18 E.01683
G1 X59.491 Y79.82 E.90567
G1 X58.956 Y79.82 E.01683
G1 X79.317 Y100.18 E.90567
G1 X78.782 Y100.18 E.01683
G1 X58.421 Y79.82 E.90567
G1 X57.886 Y79.82 E.01683
G1 X78.247 Y100.18 E.90567
G1 X77.712 Y100.18 E.01683
M73 P23 R16
G1 X57.351 Y79.82 E.90567
G1 X56.816 Y79.82 E.01683
G1 X77.177 Y100.18 E.90567
G1 X76.642 Y100.18 E.01683
G1 X56.282 Y79.82 E.90567
G1 X55.747 Y79.82 E.01683
G1 X76.107 Y100.18 E.90567
G1 X75.572 Y100.18 E.01683
G1 X55.212 Y79.82 E.90567
G1 X54.677 Y79.82 E.01683
G1 X75.037 Y100.18 E.90567
G1 X74.502 Y100.18 E.01683
G1 X54.142 Y79.82 E.90567
G1 X53.607 Y79.82 E.01683
G1 X73.967 Y100.18 E.90567
G1 X73.432 Y100.18 E.01683
G1 X53.072 Y79.82 E.90567
G1 X52.537 Y79.82 E.01683
M73 P24 R16
G1 X72.897 Y100.18 E.90567
G1 X72.362 Y100.18 E.01683
G1 X52.002 Y79.82 E.90567
G1 X51.467 Y79.82 E.01683
G1 X71.827 Y100.18 E.90567
G1 X71.292 Y100.18 E.01683
G1 X50.932 Y79.82 E.90567
G1 X50.397 Y79.82 E.01683
G1 X70.757 Y100.18 E.90567
G1 X70.222 Y100.18 E.01683
G1 X49.862 Y79.82 E.90567
G1 X49.327 Y79.82 E.01683
G1 X69.687 Y100.18 E.90567
G1 X69.152 Y100.18 E.01683
G1 X48.792 Y79.82 E.90567
G1 X48.257 Y79.82 E.01683
G1 X68.617 Y100.18 E.90567
G1 X68.082 Y100.18 E.01683
M73 P25 R16
G1 X47.722 Y79.82 E.90567
G1 X47.187 Y79.82 E.01683
G1 X67.547 Y100.18 E.90567
G1 X67.012 Y100.18 E.01683
G1 X46.652 Y79.82 E.90567
G1 X46.117 Y79.82 E.01683
G1 X66.477 Y100.18 E.90567
G1 X65.943 Y100.18 E.01683
M73 P25 R15
G1 X45.582 Y79.82 E.90567
G1 X45.047 Y79.82 E.01683
G1 X65.408 Y100.18 E.90567
G1 X64.873 Y100.18 E.01683
G1 X44.512 Y79.82 E.90567
G1 X43.977 Y79.82 E.01683
G1 X64.338 Y100.18 E.90567
G1 X63.803 Y100.18 E.01683
M73 P26 R15
G1 X43.442 Y79.82 E.90567
G1 X42.907 Y79.82 E.01683
G1 X63.268 Y100.18 E.90567
G1 X62.733 Y100.18 E.01683
G1 X42.373 Y79.82 E.90567
G1 X41.838 Y79.82 E.01683
G1 X62.198 Y100.18 E.90567
G1 X61.663 Y100.18 E.01683
G1 X41.303 Y79.82 E.90567
G1 X40.768 Y79.82 E.01683
G1 X61.128 Y100.18 E.90567
G1 X60.593 Y100.18 E.01683
G1 X40.233 Y79.82 E.90567
G1 X39.698 Y79.82 E.01683
G1 X60.058 Y100.18 E.90567
G1 X59.523 Y100.18 E.01683
G1 X39.163 Y79.82 E.90567
G1 X38.628 Y79.82 E.01683
M73 P27 R15
G1 X58.988 Y100.18 E.90567
G1 X58.453 Y100.18 E.01683
G1 X38.093 Y79.82 E.90567
G1 X37.558 Y79.82 E.01683
G1 X57.918 Y100.18 E.90567
G1 X57.383 Y100.18 E.01683
G1 X37.023 Y79.82 E.90567
G1 X36.488 Y79.82 E.01683
G1 X56.848 Y100.18 E.90567
G1 X56.313 Y100.18 E.01683
G1 X35.953 Y79.82 E.90567
G1 X35.418 Y79.82 E.01683
G1 X55.778 Y100.18 E.90567
G1 X55.243 Y100.18 E.01683
G1 X34.883 Y79.82 E.90567
G1 X34.348 Y79.82 E.01683
G1 X54.708 Y100.18 E.90567
G1 X54.173 Y100.18 E.01683
M73 P28 R15
G1 X33.813 Y79.82 E.90567
G1 X33.278 Y79.82 E.01683
G1 X53.638 Y100.18 E.90567
G1 X53.103 Y100.18 E.01683
G1 X32.743 Y79.82 E.90567
G1 X32.208 Y79.82 E.01683
G1 X52.568 Y100.18 E.90567
G1 X52.034 Y100.18 E.01683
G1 X31.673 Y79.82 E.90567
G1 X31.138 Y79.82 E.01683
G1 X51.499 Y100.18 E.90567
G1 X50.964 Y100.18 E.01683
G1 X30.603 Y79.82 E.90567
G1 X30.068 Y79.82 E.01683
G1 X50.429 Y100.18 E.90567
G1 X49.894 Y100.18 E.01683
G1 X29.533 Y79.82 E.90567
G1 X28.998 Y79.82 E.01683
M73 P29 R15
G1 X49.359 Y100.18 E.90567
G1 X48.824 Y100.18 E.01683
G1 X28.464 Y79.82 E.90567
G1 X28.07 Y79.82 E.01238
G1 X28.07 Y79.961 E.00445
G1 X48.289 Y100.18 E.89938
G1 X47.754 Y100.18 E.01683
G1 X28.07 Y80.496 E.87559
G1 X28.07 Y81.031 E.01683
G1 X47.219 Y100.18 E.85179
G1 X46.684 Y100.18 E.01683
G1 X28.07 Y81.566 E.82799
G1 X28.07 Y82.101 E.01683
G1 X46.149 Y100.18 E.8042
G1 X45.614 Y100.18 E.01683
G1 X28.07 Y82.636 E.7804
G1 X28.07 Y83.171 E.01683
